assets/icons/icon_volume_v3.svg

<svg width="30" height="30" viewBox="0 0 30 30" fill="none" xmlns="http://www.w3.org/2000/svg">
<g clip-path="url(#clip0_2048_901)">
<path d="M24.7468 23.0431C24.9751 17.4123 25.4114 6.89459 25.447 6.57012H25.3911C25.6905 6.44532 25.8427 6.30555 25.8427 6.14581C25.8427 5.35212 22.1693 4.95776 14.9239 4.95776C7.67851 4.95776 4 5.35212 4 6.13583C4 6.29557 4.15729 6.44033 4.46172 6.56513L5.83672 23.078C5.73524 23.1978 5.57288 23.3526 5.41559 23.5073C4.8524 24.0614 4.58856 24.336 4.69004 24.6055C4.90821 25.3094 6.30858 26.0282 15.0812 26.0282C24.9852 26.0282 25.6144 25.1796 25.9239 24.7603C26.0507 24.5955 26.2182 24.3759 24.7468 23.0431ZM14.9239 5.8513C18.6328 5.8513 21.2915 5.99107 22.8339 6.13583C21.3118 6.28558 18.6328 6.42536 14.9239 6.42536C11.2149 6.42536 8.56642 6.28558 7.01384 6.13583C8.53598 5.99107 11.2099 5.8513 14.9239 5.8513ZM14.9239 7.31889C18.0978 7.37604 21.2724 7.25437 24.4322 6.95449C24.3764 8.02773 24.2191 11.487 23.7574 22.7785C20.8275 23.1388 17.8764 23.3056 14.9239 23.2777C12.2117 23.302 9.50053 23.1619 6.80581 22.8584L5.4714 6.98444C8.61386 7.26248 11.7692 7.37413 14.9239 7.31889ZM15.0812 25.1347C7.49585 25.1347 5.85701 24.4907 5.75553 24.4258C5.91284 24.2294 6.08229 24.0427 6.26291 23.8667L6.5369 23.6321C9.31626 24.0055 12.1188 24.1874 14.9239 24.1762C17.9592 24.1969 20.9923 24.0084 24.0009 23.6122C24.2921 23.8757 24.5603 24.1629 24.8026 24.4707C24.4728 24.6355 22.3519 25.1347 15.066 25.1347" fill="white"/>
<path d="M9.81967 8.58189C9.75911 8.58189 9.70104 8.60555 9.65822 8.64768C9.6154 8.68981 9.59135 8.74694 9.59135 8.80652C9.59135 8.86609 9.6154 8.92323 9.65822 8.96536C9.70104 9.00748 9.75911 9.03115 9.81967 9.03115H11.1338C11.1943 9.03115 11.2524 9.00748 11.2952 8.96536C11.338 8.92323 11.3621 8.86609 11.3621 8.80652C11.3621 8.74694 11.338 8.68981 11.2952 8.64768C11.2524 8.60555 11.1943 8.58189 11.1338 8.58189H9.81967ZM11.1338 9.47542H9.81967C9.64884 9.46091 9.48975 9.3839 9.37383 9.25959C9.25791 9.13528 9.1936 8.97272 9.1936 8.80402C9.1936 8.63532 9.25791 8.47276 9.37383 8.34845C9.48975 8.22414 9.64884 8.14713 9.81967 8.13262H11.1338C11.2283 8.12459 11.3236 8.13599 11.4134 8.16608C11.5033 8.19618 11.5858 8.24431 11.6557 8.30744C11.7257 8.37057 11.7815 8.44731 11.8197 8.53279C11.8579 8.61828 11.8776 8.71064 11.8776 8.80402C11.8776 8.8974 11.8579 8.98976 11.8197 9.07525C11.7815 9.16073 11.7257 9.23747 11.6557 9.3006C11.5858 9.36373 11.5033 9.41187 11.4134 9.44196C11.3236 9.47206 11.2283 9.48345 11.1338 9.47542Z" fill="white"/>
<path d="M9.81966 11.008C9.75911 11.008 9.70103 11.0317 9.65821 11.0738C9.61539 11.1159 9.59134 11.173 9.59134 11.2326C9.59134 11.2922 9.61539 11.3493 9.65821 11.3915C9.70103 11.4336 9.75911 11.4573 9.81966 11.4573H11.1338C11.1943 11.4573 11.2524 11.4336 11.2952 11.3915C11.338 11.3493 11.3621 11.2922 11.3621 11.2326C11.3621 11.173 11.338 11.1159 11.2952 11.0738C11.2524 11.0317 11.1943 11.008 11.1338 11.008H9.81966ZM11.1338 11.9015H9.81966C9.63934 11.9015 9.46641 11.8311 9.33891 11.7056C9.2114 11.5802 9.13977 11.41 9.13977 11.2326C9.13977 11.0552 9.2114 10.8851 9.33891 10.7596C9.46641 10.6342 9.63934 10.5637 9.81966 10.5637H11.1338C11.3141 10.5637 11.487 10.6342 11.6145 10.7596C11.742 10.8851 11.8137 11.0552 11.8137 11.2326C11.8137 11.41 11.742 11.5802 11.6145 11.7056C11.487 11.8311 11.3141 11.9015 11.1338 11.9015Z" fill="white"/>
<path d="M9.81967 13.4436C9.75911 13.4436 9.70104 13.4673 9.65822 13.5094C9.6154 13.5515 9.59135 13.6086 9.59135 13.6682C9.59135 13.7278 9.6154 13.7849 9.65822 13.8271C9.70104 13.8692 9.75911 13.8929 9.81967 13.8929H11.1338C11.1943 13.8929 11.2524 13.8692 11.2952 13.8271C11.338 13.7849 11.3621 13.7278 11.3621 13.6682C11.3621 13.6086 11.338 13.5515 11.2952 13.5094C11.2524 13.4673 11.1943 13.4436 11.1338 13.4436H9.81967ZM11.1338 14.3421H9.81967C9.64884 14.3276 9.48975 14.2506 9.37383 14.1263C9.25791 14.002 9.1936 13.8394 9.1936 13.6707C9.1936 13.502 9.25791 13.3395 9.37383 13.2152C9.48975 13.0908 9.64884 13.0138 9.81967 12.9993H11.1338C11.2283 12.9913 11.3236 13.0027 11.4134 13.0328C11.5033 13.0629 11.5858 13.111 11.6557 13.1741C11.7257 13.2373 11.7815 13.314 11.8197 13.3995C11.8579 13.485 11.8776 13.5773 11.8776 13.6707C11.8776 13.7641 11.8579 13.8565 11.8197 13.9419C11.7815 14.0274 11.7257 14.1042 11.6557 14.1673C11.5858 14.2304 11.5033 14.2786 11.4134 14.3087C11.3236 14.3388 11.2283 14.3501 11.1338 14.3421Z" fill="white"/>
<path d="M9.81967 15.8651C9.78718 15.8603 9.75402 15.8624 9.72246 15.8714C9.69089 15.8803 9.66166 15.8959 9.63676 15.917C9.61187 15.9381 9.59189 15.9642 9.57819 15.9936C9.5645 16.023 9.55741 16.0549 9.55741 16.0872C9.55741 16.1195 9.5645 16.1515 9.57819 16.1809C9.59189 16.2102 9.61187 16.2364 9.63676 16.2575C9.66166 16.2785 9.69089 16.2941 9.72246 16.3031C9.75402 16.312 9.78718 16.3142 9.81967 16.3094H11.1338C11.1663 16.3142 11.1994 16.312 11.231 16.3031C11.2626 16.2941 11.2918 16.2785 11.3167 16.2575C11.3416 16.2364 11.3616 16.2102 11.3753 16.1809C11.389 16.1515 11.396 16.1195 11.396 16.0872C11.396 16.0549 11.389 16.023 11.3753 15.9936C11.3616 15.9642 11.3416 15.9381 11.3167 15.917C11.2918 15.8959 11.2626 15.8803 11.231 15.8714C11.1994 15.8624 11.1663 15.8603 11.1338 15.8651H9.81967ZM11.1338 16.7586H9.81967C9.64884 16.7441 9.48975 16.6671 9.37383 16.5428C9.25791 16.4185 9.1936 16.2559 9.1936 16.0872C9.1936 15.9185 9.25791 15.756 9.37383 15.6317C9.48975 15.5073 9.64884 15.4303 9.81967 15.4158H11.1338C11.2283 15.4078 11.3236 15.4192 11.4134 15.4493C11.5033 15.4794 11.5858 15.5275 11.6557 15.5906C11.7257 15.6538 11.7815 15.7305 11.8197 15.816C11.8579 15.9015 11.8776 15.9938 11.8776 16.0872C11.8776 16.1806 11.8579 16.273 11.8197 16.3585C11.7815 16.4439 11.7257 16.5207 11.6557 16.5838C11.5858 16.6469 11.5033 16.6951 11.4134 16.7252C11.3236 16.7553 11.2283 16.7667 11.1338 16.7586Z" fill="white"/>
<path d="M9.81967 18.2909C9.78718 18.2861 9.75402 18.2882 9.72246 18.2972C9.69089 18.3061 9.66166 18.3217 9.63676 18.3428C9.61187 18.3639 9.59189 18.39 9.57819 18.4194C9.5645 18.4487 9.55741 18.4807 9.55741 18.513C9.55741 18.5453 9.5645 18.5773 9.57819 18.6066C9.59189 18.636 9.61187 18.6622 9.63676 18.6832C9.66166 18.7043 9.69089 18.7199 9.72246 18.7288C9.75402 18.7378 9.78718 18.7399 9.81967 18.7351H11.1338C11.1663 18.7399 11.1994 18.7378 11.231 18.7288C11.2626 18.7199 11.2918 18.7043 11.3167 18.6832C11.3416 18.6622 11.3616 18.636 11.3753 18.6066C11.389 18.5773 11.396 18.5453 11.396 18.513C11.396 18.4807 11.389 18.4487 11.3753 18.4194C11.3616 18.39 11.3416 18.3639 11.3167 18.3428C11.2918 18.3217 11.2626 18.3061 11.231 18.2972C11.1994 18.2882 11.1663 18.2861 11.1338 18.2909H9.81967ZM11.1338 19.1844H9.81967C9.64884 19.1699 9.48975 19.0929 9.37383 18.9686C9.25791 18.8443 9.1936 18.6817 9.1936 18.513C9.1936 18.3443 9.25791 18.1817 9.37383 18.0574C9.48975 17.9331 9.64884 17.8561 9.81967 17.8416H11.1338C11.2283 17.8336 11.3236 17.845 11.4134 17.8751C11.5033 17.9052 11.5858 17.9533 11.6557 18.0164C11.7257 18.0796 11.7815 18.1563 11.8197 18.2418C11.8579 18.3273 11.8776 18.4196 11.8776 18.513C11.8776 18.6064 11.8579 18.6987 11.8197 18.7842C11.7815 18.8697 11.7257 18.9465 11.6557 19.0096C11.5858 19.0727 11.5033 19.1209 11.4134 19.1509C11.3236 19.181 11.2283 19.1924 11.1338 19.1844Z" fill="white"/>
<path d="M9.81967 20.7169C9.78968 20.7156 9.75971 20.72 9.73149 20.7301C9.70327 20.7402 9.67734 20.7556 9.65519 20.7756C9.63304 20.7955 9.6151 20.8195 9.6024 20.8463C9.58971 20.8731 9.5825 20.902 9.5812 20.9315C9.5812 20.9911 9.60526 21.0483 9.64807 21.0904C9.69089 21.1325 9.74897 21.1562 9.80952 21.1562H11.1236C11.1842 21.1562 11.2423 21.1325 11.2851 21.0904C11.3279 21.0483 11.352 20.9911 11.352 20.9315C11.352 20.872 11.3279 20.8148 11.2851 20.7727C11.2423 20.7306 11.1842 20.7069 11.1236 20.7069L9.81967 20.7169ZM11.1338 21.6104H9.81967C9.64884 21.5959 9.48975 21.5189 9.37383 21.3946C9.25791 21.2703 9.1936 21.1077 9.1936 20.939C9.1936 20.7703 9.25791 20.6078 9.37383 20.4835C9.48975 20.3592 9.64884 20.2821 9.81967 20.2676H11.1338C11.2283 20.2596 11.3236 20.271 11.4134 20.3011C11.5033 20.3312 11.5858 20.3793 11.6557 20.4425C11.7257 20.5056 11.7815 20.5823 11.8197 20.6678C11.8579 20.7533 11.8776 20.8456 11.8776 20.939C11.8776 21.0324 11.8579 21.1248 11.8197 21.2103C11.7815 21.2957 11.7257 21.3725 11.6557 21.4356C11.5858 21.4987 11.5033 21.5469 11.4134 21.577C11.3236 21.6071 11.2283 21.6185 11.1338 21.6104Z" fill="white"/>
</g>
<defs>
<clipPath id="clip0_2048_901">
<rect width="22" height="21.0704" fill="white" transform="translate(4 4.95776)"/>
</clipPath>
</defs>
</svg>

<svg xmlns="http://www.w3.org/2000/svg" width="30" height="30" fill="none" viewBox="0 0 30 30"><g fill="#fff" clip-path="url(#a)"><path d="M24.747 23.043c.228-5.63.664-16.148.7-16.473h-.056q.451-.186.452-.424c0-.794-3.674-1.188-10.92-1.188C7.68 4.958 4 5.352 4 6.136c0 .16.157.304.462.43l1.375 16.512c-.102.12-.264.275-.421.43-.564.553-.827.828-.726 1.098.218.703 1.619 1.422 10.391 1.422 9.904 0 10.533-.848 10.843-1.268.127-.165.294-.384-1.177-1.717M14.924 5.851c3.709 0 6.368.14 7.91.285-1.522.15-4.201.29-7.91.29s-6.358-.14-7.91-.29c1.522-.145 4.196-.285 7.91-.285m0 1.468a85 85 0 0 0 9.508-.365c-.056 1.074-.213 4.533-.675 15.825-2.93.36-5.88.527-8.833.499a67 67 0 0 1-8.118-.42L5.47 6.984c3.143.278 6.298.39 9.453.335m.157 17.816c-7.585 0-9.224-.644-9.325-.71a6 6 0 0 1 .507-.558l.274-.235c2.78.373 5.582.555 8.387.544 3.035.02 6.068-.168 9.077-.564q.438.396.802.859c-.33.165-2.451.664-9.737.664"/><path d="M9.82 8.582a.23.23 0 0 0-.162.066.223.223 0 0 0 0 .317.23.23 0 0 0 .162.066h1.314a.23.23 0 0 0 .161-.066.223.223 0 0 0 0-.317.23.23 0 0 0-.161-.066zm1.314.893H9.82a.7.7 0 0 1-.446-.215.67.67 0 0 1 0-.912.7.7 0 0 1 .446-.215h1.314a.7.7 0 0 1 .522.174.67.67 0 0 1 .222.497.67.67 0 0 1-.222.497.69.69 0 0 1-.522.174M9.82 11.008a.23.23 0 0 0-.162.066.223.223 0 0 0 0 .318.23.23 0 0 0 .162.065h1.314a.23.23 0 0 0 .161-.066.223.223 0 0 0-.161-.383zm1.314.894H9.82a.69.69 0 0 1-.481-.196.663.663 0 0 1 0-.946.69.69 0 0 1 .48-.196h1.315c.18 0 .353.07.48.196a.664.664 0 0 1 0 .946.69.69 0 0 1-.48.196M9.82 13.444a.23.23 0 0 0-.162.065.223.223 0 0 0 0 .318.23.23 0 0 0 .162.066h1.314a.23.23 0 0 0 .161-.066.223.223 0 0 0-.161-.383zm1.314.898H9.82a.7.7 0 0 1-.446-.216.67.67 0 0 1 0-.91.7.7 0 0 1 .446-.217h1.314a.7.7 0 0 1 .522.175.67.67 0 0 1 .222.497.66.66 0 0 1-.222.496.69.69 0 0 1-.522.175M9.82 15.865a.23.23 0 0 0-.242.129.22.22 0 0 0 .059.264.23.23 0 0 0 .183.051h1.314a.23.23 0 0 0 .183-.052.23.23 0 0 0 .079-.17.22.22 0 0 0-.08-.17.23.23 0 0 0-.182-.052zm1.314.894H9.82a.7.7 0 0 1-.446-.216.67.67 0 0 1 0-.911.7.7 0 0 1 .446-.216h1.314a.7.7 0 0 1 .522.175.67.67 0 0 1 .222.496.67.67 0 0 1-.222.497.69.69 0 0 1-.522.175M9.82 18.29a.23.23 0 0 0-.242.13.22.22 0 0 0 .059.263.23.23 0 0 0 .183.052h1.314a.23.23 0 0 0 .241-.128.22.22 0 0 0-.058-.264.23.23 0 0 0-.183-.052zm1.314.894H9.82a.7.7 0 0 1-.446-.215.67.67 0 0 1 0-.912.7.7 0 0 1 .446-.215h1.314a.7.7 0 0 1 .522.174.67.67 0 0 1 .222.497.66.66 0 0 1-.222.497.69.69 0 0 1-.522.174M9.82 20.717a.23.23 0 0 0-.218.13.2.2 0 0 0-.02.084c0 .06.023.117.066.16a.23.23 0 0 0 .162.065h1.314a.23.23 0 0 0 .161-.066.223.223 0 0 0 0-.317.23.23 0 0 0-.161-.066zm1.314.893H9.82a.7.7 0 0 1-.446-.215.67.67 0 0 1 0-.912.7.7 0 0 1 .446-.215h1.314a.7.7 0 0 1 .522.174.67.67 0 0 1 .222.497.67.67 0 0 1-.222.497.69.69 0 0 1-.522.174"/></g><defs><clipPath id="a"><path fill="#fff" d="M4 4.958h22v21.07H4z"/></clipPath></defs></svg>
